( pcb2gcode 2.5.0 )
( Software-independent Gcode )

( This file uses 5 drill bit sizes. )
( Bit sizes: [0.6mm] [0.7mm] [0.8mm] [1mm] [1.2mm] )

( Laser workflow: paint is removed by laser, not pen, so there is NO )
( pen-to-drill offset. The board edge is etched away, so alignment is )
( to a copper fiducial, not a corner. Mount the drill bit, jog to the )
( fiducial cross, lower Z until the bit touches it, then resume. The  )
( post-processor rewrites the G92 below to declare the fiducial's      )
( position in the part frame (--fiducial), so holes land relative to   )
( it. Left as 0,0 here for the un-shifted / corner-origin case.        )
(MSG, Position drill on the fiducial and touch off.)
M0      (Jog to fiducial, lower bit until it touches, then resume.)
G04 P0 ( dwell for no time -- G64 should not smooth over this point )
G92 X0 Y0 Z0

G94       (Millimeters per minute feed rate.)
G21       (Units == Millimeters.)
G91.1     (Incremental arc distance mode.)
G90       (Absolute coordinates.)

G00 Z30.00000 (Retract)
T1
M5      (Spindle stop.)
G04 P1.00000
(MSG, Change tool bit to drill size 0.6mm)
M6      (Tool change.)
M0      (Temporary machine stop.)
M3 S255      (Spindle on clockwise at full PWM.)
G0 Z5.00000
G04 P1.00000

G1 F200.00000
G0 X57.15000 Y77.47000
G1 Z-2.50000
G1 Z5.00000
G0 X57.15000 Y80.01000
G1 Z-2.50000
G1 Z5.00000
G0 X54.61000 Y77.47000
G1 Z-2.50000
G1 Z5.00000
G0 X54.61000 Y80.01000
G1 Z-2.50000
G1 Z5.00000
G0 X52.07000 Y80.01000
G1 Z-2.50000
G1 Z5.00000
G0 X52.07000 Y77.47000
G1 Z-2.50000
G1 Z5.00000
G0 X49.53000 Y80.01000
G1 Z-2.50000
G1 Z5.00000
G0 X49.53000 Y77.47000
G1 Z-2.50000
G1 Z5.00000
G0 X46.99000 Y77.47000
G1 Z-2.50000
G1 Z5.00000
G0 X46.99000 Y80.01000
G1 Z-2.50000
G1 Z5.00000
G0 X44.45000 Y80.01000
G1 Z-2.50000
G1 Z5.00000
G0 X44.45000 Y77.47000
G1 Z-2.50000
G1 Z5.00000
G0 X41.91000 Y77.47000
G1 Z-2.50000
G1 Z5.00000
G0 X41.91000 Y80.01000
G1 Z-2.50000
G1 Z5.00000
G0 X39.37000 Y80.01000
G1 Z-2.50000
G1 Z5.00000
G0 X39.37000 Y77.47000
G1 Z-2.50000
G1 Z5.00000
G0 X36.83000 Y77.47000
G1 Z-2.50000
G1 Z5.00000
G0 X36.83000 Y80.01000
G1 Z-2.50000
G1 Z5.00000
G0 X34.29000 Y80.01000
G1 Z-2.50000
G1 Z5.00000
G0 X34.29000 Y77.47000
G1 Z-2.50000
G1 Z5.00000
G0 X31.75000 Y77.47000
G1 Z-2.50000
G1 Z5.00000
G0 X31.75000 Y80.01000
G1 Z-2.50000
G1 Z5.00000
G0 X29.21000 Y80.01000
G1 Z-2.50000
G1 Z5.00000
G0 X29.21000 Y77.47000
G1 Z-2.50000
G1 Z5.00000
G0 X26.67000 Y77.47000
G1 Z-2.50000
G1 Z5.00000
G0 X26.67000 Y80.01000
G1 Z-2.50000
G1 Z5.00000
G0 X24.13000 Y80.01000
G1 Z-2.50000
G1 Z5.00000
G0 X21.59000 Y80.01000
G1 Z-2.50000
G1 Z5.00000
G0 X24.13000 Y77.47000
G1 Z-2.50000
G1 Z5.00000
G0 X21.59000 Y77.47000
G1 Z-2.50000
G1 Z5.00000
G0 X19.05000 Y77.47000
G1 Z-2.50000
G1 Z5.00000
G0 X19.05000 Y80.01000
G1 Z-2.50000
G1 Z5.00000
G0 X16.51000 Y80.01000
G1 Z-2.50000
G1 Z5.00000
G0 X16.51000 Y77.47000
G1 Z-2.50000
G1 Z5.00000
G0 X13.97000 Y80.01000
G1 Z-2.50000
G1 Z5.00000
G0 X11.43000 Y80.01000
G1 Z-2.50000
G1 Z5.00000
G0 X8.89000 Y80.01000
G1 Z-2.50000
G1 Z5.00000
G0 X8.89000 Y77.47000
G1 Z-2.50000
G1 Z5.00000
G0 X11.43000 Y77.47000
G1 Z-2.50000
G1 Z5.00000
G0 X13.97000 Y77.47000
G1 Z-2.50000
G1 Z5.00000

G00 Z30.00000 (Retract)
T2
M5      (Spindle stop.)
G04 P1.00000
(MSG, Change tool bit to drill size 0.7mm)
M6      (Tool change.)
M0      (Temporary machine stop.)
M3 S255      (Spindle on clockwise at full PWM.)
G0 Z5.00000
G04 P1.00000

G1 F200.00000
G0 X0.25400 Y2.54000
G1 Z-2.50000
G1 Z5.00000
G0 X2.79400 Y2.54000
G1 Z-2.50000
G1 Z5.00000
G0 X2.79400 Y5.84200
G1 Z-2.50000
G1 Z5.00000
G0 X0.25400 Y5.84200
G1 Z-2.50000
G1 Z5.00000

G00 Z30.00000 (Retract)
T3
M5      (Spindle stop.)
G04 P1.00000
(MSG, Change tool bit to drill size 0.8mm)
M6      (Tool change.)
M0      (Temporary machine stop.)
M3 S255      (Spindle on clockwise at full PWM.)
G0 Z5.00000
G04 P1.00000

G1 F200.00000
G0 X7.48900 Y3.81000
G1 Z-2.50000
G1 Z5.00000
G0 X7.61600 Y6.35000
G1 Z-2.50000
G1 Z5.00000
G0 X7.74300 Y8.89000
G1 Z-2.50000
G1 Z5.00000
G0 X7.61600 Y11.43000
G1 Z-2.50000
G1 Z5.00000
G0 X7.48900 Y13.97000
G1 Z-2.50000
G1 Z5.00000
G0 X7.61600 Y16.51000
G1 Z-2.50000
G1 Z5.00000
G0 X7.74300 Y19.05000
G1 Z-2.50000
G1 Z5.00000
G0 X7.61600 Y21.59000
G1 Z-2.50000
G1 Z5.00000
G0 X7.48900 Y24.13000
G1 Z-2.50000
G1 Z5.00000
G0 X7.61600 Y26.67000
G1 Z-2.50000
G1 Z5.00000
G0 X7.74300 Y29.21000
G1 Z-2.50000
G1 Z5.00000
G0 X7.61600 Y31.75000
G1 Z-2.50000
G1 Z5.00000
G0 X7.48900 Y34.29000
G1 Z-2.50000
G1 Z5.00000
G0 X7.61600 Y36.83000
G1 Z-2.50000
G1 Z5.00000
G0 X7.74300 Y39.37000
G1 Z-2.50000
G1 Z5.00000
G0 X7.61600 Y41.91000
G1 Z-2.50000
G1 Z5.00000
G0 X33.02000 Y41.91000
G1 Z-2.50000
G1 Z5.00000
G0 X32.89300 Y39.37000
G1 Z-2.50000
G1 Z5.00000
G0 X33.02000 Y36.83000
G1 Z-2.50000
G1 Z5.00000
G0 X33.14700 Y34.29000
G1 Z-2.50000
G1 Z5.00000
G0 X33.02000 Y31.75000
G1 Z-2.50000
G1 Z5.00000
G0 X32.89300 Y29.21000
G1 Z-2.50000
G1 Z5.00000
G0 X33.02000 Y26.67000
G1 Z-2.50000
G1 Z5.00000
G0 X33.14700 Y24.13000
G1 Z-2.50000
G1 Z5.00000
G0 X33.02000 Y21.59000
G1 Z-2.50000
G1 Z5.00000
G0 X32.89300 Y19.05000
G1 Z-2.50000
G1 Z5.00000
G0 X33.02000 Y16.51000
G1 Z-2.50000
G1 Z5.00000
G0 X33.14700 Y13.97000
G1 Z-2.50000
G1 Z5.00000
G0 X33.02000 Y11.43000
G1 Z-2.50000
G1 Z5.00000
G0 X32.89300 Y8.89000
G1 Z-2.50000
G1 Z5.00000
G0 X33.02000 Y6.35000
G1 Z-2.50000
G1 Z5.00000
G0 X33.14700 Y3.81000
G1 Z-2.50000
G1 Z5.00000
G0 X33.02000 Y1.27000
G1 Z-2.50000
G1 Z5.00000
G0 X32.89300 Y-1.27000
G1 Z-2.50000
G1 Z5.00000
G0 X33.02000 Y-3.81000
G1 Z-2.50000
G1 Z5.00000
G0 X7.62000 Y1.27000
G1 Z-2.50000
G1 Z5.00000
G0 X7.74700 Y-1.27000
G1 Z-2.50000
G1 Z5.00000
G0 X7.62000 Y-3.81000
G1 Z-2.50000
G1 Z5.00000

G00 Z30.00000 (Retract)
T4
M5      (Spindle stop.)
G04 P1.00000
(MSG, Change tool bit to drill size 1mm)
M6      (Tool change.)
M0      (Temporary machine stop.)
M3 S255      (Spindle on clockwise at full PWM.)
G0 Z5.00000
G04 P1.00000

G1 F200.00000
G0 X0.00000 Y10.66800
G1 Z-2.50000
G1 Z5.00000
G0 X0.00000 Y13.20800
G1 Z-2.50000
G1 Z5.00000
G0 X0.00000 Y15.74800
G1 Z-2.50000
G1 Z5.00000
G0 X0.00000 Y18.28800
G1 Z-2.50000
G1 Z5.00000
G0 X0.00000 Y31.75000
G1 Z-2.50000
G1 Z5.00000
G0 X0.00000 Y34.29000
G1 Z-2.50000
G1 Z5.00000
G0 X0.00000 Y36.83000
G1 Z-2.50000
G1 Z5.00000
G0 X0.00000 Y39.37000
G1 Z-2.50000
G1 Z5.00000
G0 X0.00000 Y41.91000
G1 Z-2.50000
G1 Z5.00000
G0 X0.00000 Y44.45000
G1 Z-2.50000
G1 Z5.00000
G0 X0.00000 Y46.99000
G1 Z-2.50000
G1 Z5.00000
G0 X0.00000 Y49.53000
G1 Z-2.50000
G1 Z5.00000
G0 X68.58000 Y64.77000
G1 Z-2.50000
G1 Z5.00000
G0 X71.12000 Y64.77000
G1 Z-2.50000
G1 Z5.00000
G0 X73.66000 Y64.77000
G1 Z-2.50000
G1 Z5.00000
G0 X76.20000 Y64.77000
G1 Z-2.50000
G1 Z5.00000
G0 X78.74000 Y64.77000
G1 Z-2.50000
G1 Z5.00000
G0 X81.28000 Y64.77000
G1 Z-2.50000
G1 Z5.00000
G0 X81.28000 Y54.86400
G1 Z-2.50000
G1 Z5.00000
G0 X78.74000 Y54.86400
G1 Z-2.50000
G1 Z5.00000
G0 X76.20000 Y54.86400
G1 Z-2.50000
G1 Z5.00000
G0 X73.66000 Y54.86400
G1 Z-2.50000
G1 Z5.00000
G0 X71.12000 Y54.86400
G1 Z-2.50000
G1 Z5.00000
G0 X68.58000 Y54.86400
G1 Z-2.50000
G1 Z5.00000
G0 X81.28000 Y36.57600
G1 Z-2.50000
G1 Z5.00000
G0 X78.74000 Y36.57600
G1 Z-2.50000
G1 Z5.00000
G0 X78.74000 Y34.03600
G1 Z-2.50000
G1 Z5.00000
G0 X81.28000 Y34.03600
G1 Z-2.50000
G1 Z5.00000
G0 X81.28000 Y31.49600
G1 Z-2.50000
G1 Z5.00000
G0 X78.74000 Y31.49600
G1 Z-2.50000
G1 Z5.00000
G0 X78.74000 Y28.95600
G1 Z-2.50000
G1 Z5.00000
G0 X81.28000 Y28.95600
G1 Z-2.50000
G1 Z5.00000
G0 X81.28000 Y26.41600
G1 Z-2.50000
G1 Z5.00000
G0 X78.74000 Y26.41600
G1 Z-2.50000
G1 Z5.00000
G0 X78.74000 Y23.87600
G1 Z-2.50000
G1 Z5.00000
G0 X81.28000 Y23.87600
G1 Z-2.50000
G1 Z5.00000
G0 X81.28000 Y21.33600
G1 Z-2.50000
G1 Z5.00000
G0 X78.74000 Y21.33600
G1 Z-2.50000
G1 Z5.00000
G0 X78.74000 Y18.79600
G1 Z-2.50000
G1 Z5.00000
G0 X78.74000 Y16.25600
G1 Z-2.50000
G1 Z5.00000
G0 X81.28000 Y18.79600
G1 Z-2.50000
G1 Z5.00000
G0 X81.28000 Y16.25600
G1 Z-2.50000
G1 Z5.00000

G00 Z30.00000 (Retract)
T5
M5      (Spindle stop.)
G04 P1.00000
(MSG, Change tool bit to drill size 1.2mm)
M6      (Tool change.)
M0      (Temporary machine stop.)
M3 S255      (Spindle on clockwise at full PWM.)
G0 Z5.00000
G04 P1.00000

G1 F200.00000
G0 X40.13200 Y8.76300
G1 Z-2.50000
G1 Z5.00000
G0 X47.30000 Y0.00000
G1 Z-2.50000
G1 Z5.00000
G0 X50.80000 Y0.00000
G1 Z-2.50000
G1 Z5.00000
G0 X57.27700 Y8.76300
G1 Z-2.50000
G1 Z5.00000
G0 X57.27700 Y48.26000
G1 Z-2.50000
G1 Z5.00000
G0 X40.13200 Y48.26000
G1 Z-2.50000
G1 Z5.00000

G00 Z30.000 ( All done -- retract )
G04 P0 ( dwell for no time -- G64 should not smooth over this point )
G00 X0.0 Y0.0 Z0.0  ( move back to home )


M5      (Spindle off.)
G04 P1.000000
M9      (Coolant off.)
M2      (Program end.)

